app/javascript/packs/images/thumbs-up.svg

<svg width="32" height="48" viewBox="0 0 32 48" version="1.1" xmlns="http://www.w3.org/2000/svg" xmlns:xlink="http://www.w3.org/1999/xlink">
<title>Page 1</title>
<desc>Created using Figma</desc>
<g id="Canvas" transform="translate(-4186 -277)">
<g id="Page 1">
<mask id="mask0_outline" mask-type="alpha">
<g id="Clip 2">
<use xlink:href="#path0_fill" transform="translate(4186 277)" fill="#FFFFFF"/>
</g>
</mask>
<g id="Fill 1" mask="url(#mask0_outline)">
<use xlink:href="#path1_fill" transform="translate(4186 277)" fill="#9C6B1F"/>
</g>
</g>
</g>
<defs>
<path id="path0_fill" fill-rule="evenodd" d="M 32 24L 32 48L 0 48L 0 24L 0 0L 32 0L 32 24Z"/>
<path id="path1_fill" fill-rule="evenodd" d="M 32 28.8014C 32 26.711 30.6726 24.928 28.826 24.272C 29.3328 23.5085 29.6296 22.5896 29.6296 21.601C 29.6296 18.954 27.5031 16.8008 24.8889 16.8008L 17.7778 16.8008L 17.7778 4.80023C 17.7778 2.15325 15.6512 0 13.037 0C 10.4229 0 8.2963 2.15325 8.2963 4.80023L 8.2963 16.8008C 8.00282 16.8008 5.39203 16.8442 3.90208 18.3517C 2.72818 19.5392 1.85115 20.9701 1.22018 22.7268C 0.409735 24.9783 0 27.8288 0 31.2015C 0 34.1079 0.422152 37.3458 1.18744 40.3173C 1.62878 42.026 2.56451 45.0959 3.90208 46.4491C 5.38977 47.9566 8.00282 48 8.2963 48L 22.5185 48C 25.1327 48 27.2593 45.8468 27.2593 43.1998C 27.2593 42.2112 26.9624 41.2934 26.4556 40.5288C 28.3022 39.8705 29.6296 38.0898 29.6296 35.9994C 29.6296 35.0108 29.3328 34.0931 28.826 33.3284C 30.6726 32.6701 32 30.8895 32 28.7991L 32 28.8014ZM 10.6665 4.80023C 10.6665 3.47788 11.7309 2.40012 13.0369 2.40012C 14.3428 2.40012 15.4072 3.47788 15.4072 4.80023L 15.4072 16.8008L 10.6665 16.8008L 10.6665 4.80023ZM 27.2593 31.2015L 16.5926 31.2015C 15.938 31.2015 15.4075 31.7387 15.4075 32.4016C 15.4075 33.0644 15.938 33.6016 16.5926 33.6016L 24.8889 33.6016C 26.1949 33.6016 27.2593 34.6794 27.2593 36.0017C 27.2593 37.3241 26.1949 38.4018 24.8889 38.4018L 15.4075 38.4018C 14.7528 38.4018 14.2223 38.939 14.2223 39.6019C 14.2223 40.2648 14.7528 40.802 15.4075 40.802L 22.5186 40.802C 23.8245 40.802 24.8889 41.8797 24.8889 43.2021C 24.8889 44.5244 23.8245 45.6022 22.5186 45.6022L 8.2986 45.6022C 7.8076 45.5999 6.25331 45.4365 5.57719 44.7553C 4.28591 43.4467 2.36816 37.1801 2.36816 31.2015C 2.36816 23.2983 4.78368 20.8524 5.57719 20.0501C 6.25331 19.3666 7.80534 19.2055 8.2986 19.2009L 24.8889 19.2009C 26.1949 19.2009 27.2593 20.2787 27.2593 21.601C 27.2593 22.9234 26.1949 24.0012 24.8889 24.0012L 16.5926 24.0012C 15.938 24.0012 15.4075 24.5383 15.4075 25.2012C 15.4075 25.8641 15.938 26.4013 16.5926 26.4013L 27.2593 26.4013C 28.5653 26.4013 29.6297 27.479 29.6297 28.8014C 29.6297 30.1237 28.5653 31.2015 27.2593 31.2015Z"/>
</defs>
</svg>

<svg width="32" height="48" xmlns="http://www.w3.org/2000/svg" xmlns:xlink="http://www.w3.org/1999/xlink"><g transform="translate(-4186 -277)"><mask id="a"><path fill-rule="evenodd" d="M32 24v24H0V0h32v24z" transform="translate(4186 277)" fill="#FFF"></path></mask>
        <g mask="url(#a)"><path fill-rule="evenodd" d="M32 28.801a4.803 4.803 0 0 0-3.174-4.529 4.815 4.815 0 0 0 .804-2.671c0-2.647-2.127-4.8-4.741-4.8h-7.111v-12C17.778 2.152 15.65 0 13.037 0s-4.74 2.153-4.74 4.8v12c-.294 0-2.905.044-4.395 1.552-1.174 1.187-2.05 2.618-2.682 4.375C.41 24.978 0 27.829 0 31.2c0 2.907.422 6.145 1.187 9.116.442 1.709 1.378 4.779 2.715 6.132C5.39 47.957 8.002 48 8.296 48H22.52c2.614 0 4.74-2.153 4.74-4.8 0-.989-.297-1.907-.803-2.671a4.805 4.805 0 0 0 3.174-4.53c0-.988-.297-1.906-.804-2.67A4.805 4.805 0 0 0 32 28.798v.002zm-21.334-24c0-1.323 1.065-2.4 2.37-2.4 1.307 0 2.371 1.077 2.371 2.4v12h-4.74v-12zM27.26 31.2H16.593c-.655 0-1.185.538-1.185 1.2 0 .663.53 1.2 1.185 1.2h8.296c1.306 0 2.37 1.078 2.37 2.4 0 1.323-1.064 2.4-2.37 2.4h-9.481c-.655 0-1.186.538-1.186 1.2 0 .664.53 1.201 1.186 1.201h7.11c1.306 0 2.37 1.078 2.37 2.4 0 1.322-1.064 2.4-2.37 2.4H8.299c-.49-.002-2.045-.165-2.72-.847-1.292-1.308-3.21-7.575-3.21-13.554 0-7.903 2.416-10.349 3.21-11.15.675-.684 2.227-.845 2.72-.85h16.59c1.307 0 2.371 1.078 2.371 2.4 0 1.322-1.064 2.4-2.37 2.4h-8.296c-.655 0-1.185.537-1.185 1.2 0 .663.53 1.2 1.185 1.2h10.666c1.306 0 2.37 1.078 2.37 2.4 0 1.323-1.064 2.4-2.37 2.4z" transform="translate(4186 277)" fill="#9C6B1F"></path></g>
    </g></svg>
